ix/cloud-change_bulk.svg

<svg viewBox="0 0 24 24" fill="none" xmlns="http://www.w3.org/2000/svg" height="1em" width="1em">
  <path d="M8.1093 11.85C5.2893 12.05 5.2993 16.15 8.1093 16.35H14.7793C15.5893 16.36 16.3693 16.05 16.9693 15.51C18.9493 13.78 17.8893 10.31 15.2893 9.98001C14.3593 4.34001 6.20933 6.48 8.13933 11.85" fill="#292D32"/>
  <path opacity="0.4" d="M9 22.75C4.73 22.75 1.25 19.27 1.25 15C1.25 14.59 1.59 14.25 2 14.25C2.41 14.25 2.75 14.59 2.75 15C2.75 17.96 4.80999 20.44 7.57999 21.09L7.31 20.64C7.1 20.28 7.21001 19.82 7.57001 19.61C7.92001 19.4 8.39001 19.51 8.60001 19.87L9.64999 21.62C9.78999 21.85 9.79 22.14 9.66 22.37C9.52 22.6 9.27 22.75 9 22.75Z" fill="#292D32"/>
  <path opacity="0.4" d="M22.0004 9.75C21.5904 9.75 21.2504 9.41 21.2504 9C21.2504 6.04 19.1904 3.55997 16.4204 2.90997L16.6904 3.35999C16.9004 3.71999 16.7904 4.18001 16.4304 4.39001C16.0804 4.60001 15.6104 4.49001 15.4004 4.13L14.3504 2.38C14.2104 2.15 14.2104 1.86 14.3404 1.63C14.4704 1.39 14.7204 1.25 14.9904 1.25C19.2604 1.25 22.7404 4.73 22.7404 9C22.7504 9.41 22.4104 9.75 22.0004 9.75Z" fill="#292D32"/>
</svg>

<svg viewBox="0 0 24 24" fill="none" xmlns="http://www.w3.org/2000/svg" height="1em" width="1em">
  <path d="M8.11 11.85c-2.82.2-2.81 4.3 0 4.5h6.67c.81.01 1.59-.3 2.19-.84 1.98-1.73.92-5.2-1.68-5.53-.93-5.64-9.08-3.5-7.15 1.87" fill="#292D32"/>
  <path opacity=".4" d="M9 22.75c-4.27 0-7.75-3.48-7.75-7.75 0-.41.34-.75.75-.75s.75.34.75.75c0 2.96 2.06 5.44 4.83 6.09l-.27-.45a.751.751 0 1 1 1.29-.77l1.05 1.75c.14.23.14.52.01.75-.14.23-.39.38-.66.38Zm13-13c-.41 0-.75-.34-.75-.75 0-2.96-2.06-5.44-4.83-6.09l.27.45a.75.75 0 1 1-1.29.77l-1.05-1.75a.745.745 0 0 1-.01-.75c.13-.24.38-.38.65-.38 4.27 0 7.75 3.48 7.75 7.75a.74.74 0 0 1-.74.75Z" fill="#292D32"/>
</svg>
